brandFactory_export/1.Light/Camara fotos_1Light.svg

<?xml version="1.0" encoding="UTF-8"?>
<svg width="24px" height="24px" viewBox="0 0 24 24" version="1.1" xmlns="http://www.w3.org/2000/svg" xmlns:xlink="http://www.w3.org/1999/xlink">
    <title>1.Light/Camara fotos_1Light</title>
    <g id="Symbols" stroke="none" stroke-width="1" fill="none" fill-rule="evenodd">
        <g id="1.Light/Camara-fotos_1Light" fill="#5CB615" fill-rule="nonzero">
            <path d="M11.9462185,15.1815126 C13.892437,15.1445378 13.892437,13.5714286 13.892437,13.0537815 C13.892437,12.5361345 13.892437,10.9563025 11.9260504,10.9092437 C11.8554622,10.9058824 11.7747899,10.9058824 11.697479,10.9058824 L11.6403361,10.9058824 C9.73109244,10.9226891 9.73109244,12.512605 9.73109244,13.0336134 C9.73109244,13.5579832 9.73109244,15.1546218 11.6705882,15.1848739 L11.7613445,15.1848739 L11.9462185,15.1815126 L11.9462185,15.1815126 Z M11.9596639,9.47394958 C12.6487395,9.4907563 15.3344538,9.76638655 15.3344538,13.0537815 C15.3344538,16.3478992 12.6453782,16.6033613 11.9697479,16.6168067 C11.9058824,16.6168067 11.8319328,16.6201681 11.7613445,16.6201681 L11.6470588,16.6201681 C10.9411765,16.610084 8.28571429,16.3512605 8.28571429,13.0369748 C8.28571429,9.72941176 10.9176471,9.48403361 11.6235294,9.47731092 L11.6941176,9.47731092 C11.7848739,9.47058824 11.8789916,9.47058824 11.9596639,9.47394958 L11.9596639,9.47394958 Z M21.9495798,19.1210084 C22.1411765,18.9159664 22.1579832,18.502521 22.1512605,18.4252101 L22.1478992,7.71260504 C22.1478992,7.37983193 22.0773109,7.14117647 21.9327731,7.00336134 C21.7714286,6.84537815 21.5327731,6.83193277 21.5294118,6.83193277 L14.8201681,6.82857143 C14.5613445,6.82857143 14.3226891,6.6907563 14.194958,6.47226891 L13.0084034,4.44537815 L10.4067227,4.45210084 L9.4487395,6.42857143 C9.32773109,6.67394958 9.07563025,6.83193277 8.8,6.83193277 C5.70084034,6.83193277 3.07563025,6.83193277 2.41680672,6.83865546 C2.04369748,6.84201681 1.78151261,6.92268908 1.64033613,7.08403361 C1.4487395,7.29915966 1.46554622,7.63529412 1.46890756,7.63865546 L1.50252101,18.3848739 C1.52941176,19.2655462 1.98655462,19.2588235 2,19.2655462 L21.5193277,19.2689076 C21.7848739,19.2621849 21.892437,19.1815126 21.9495798,19.1210084 L21.9495798,19.1210084 Z M23.5966387,18.3781513 C23.6033613,18.4386555 23.6470588,19.4201681 23.005042,20.0991597 C22.7495798,20.3714286 22.2823529,20.6941176 21.5193277,20.6941176 L2.02016807,20.6907563 C1.46554622,20.6907563 0.117647059,20.3176471 0.0605042017,18.3983193 L0.0302521008,7.7092437 C0.0235294118,7.68571429 -0.0504201681,6.80840336 0.564705882,6.11932773 C0.860504202,5.79327731 1.41848739,5.4 2.41008403,5.39663866 C3.03529412,5.39327731 5.44537815,5.38991597 8.34957983,5.38991597 L9.12605042,3.81008403 C9.36806723,3.31932773 9.85882353,3.01344538 10.4067227,3.01344538 L13.0252101,3.01344538 C13.5294118,3.01344538 14.0033613,3.28571429 14.2588235,3.72268908 L15.2336134,5.38991597 L21.5159664,5.39663866 C21.5831933,5.41008403 22.3495798,5.4 22.9445378,5.97815126 C23.2403361,6.26722689 23.5932773,6.80168067 23.5932773,7.71260504 L23.5932773,18.3781513 L23.5966387,18.3781513 Z" id="Camara-fotos_1Light"></path>
        </g>
    </g>
</svg>

<svg width="24" height="24" viewBox="0 0 24 24" xmlns="http://www.w3.org/2000/svg"><path d="M11.946 15.182c1.946-.037 1.946-1.61 1.946-2.128s0-2.098-1.966-2.145c-.07-.003-.151-.003-.229-.003h-.057c-1.909.017-1.909 1.607-1.909 2.128 0 .524 0 2.12 1.94 2.15h.09l.185-.002zm.014-5.708c.689.017 3.374.292 3.374 3.58 0 3.294-2.689 3.55-3.364 3.563-.064 0-.138.003-.209.003h-.114c-.706-.01-3.361-.269-3.361-3.583 0-3.308 2.632-3.553 3.338-3.56h.07c.09-.006.185-.006.266-.003zm9.99 9.647c.191-.205.208-.618.201-.696l-.003-10.712c0-.333-.07-.572-.215-.71a.69.69 0 00-.404-.171l-6.709-.003a.725.725 0 01-.625-.357l-1.187-2.027-2.601.007-.958 1.977a.725.725 0 01-.649.403c-3.1 0-5.724 0-6.383.007-.373.003-.635.084-.777.245-.191.215-.174.551-.171.555l.034 10.746c.026.88.484.874.497.88l19.52.004c.265-.007.372-.087.43-.148zm1.647-.743c.006.06.05 1.042-.592 1.721-.255.272-.723.595-1.486.595L2.02 20.691c-.554 0-1.902-.373-1.96-2.293L.03 7.71c-.006-.023-.08-.9.535-1.59.296-.326.853-.719 1.845-.722.625-.004 3.035-.007 5.94-.007l.776-1.58a1.42 1.42 0 011.28-.797h2.62c.503 0 .977.273 1.233.71l.975 1.667 6.282.007c.067.013.834.003 1.429.581.295.29.648.824.648 1.735v10.665h.004z" fill="#5CB615" fill-rule="nonzero"/></svg>
